X:1
T:Title
%%score { 1 | 2 }
L:1/8
Q:1/4=88
M:4/4
K:G
V:1 treble nm="Grand Piano"
V:2 bass 
V:1
 BB_B=B GD^CD | E^DEA E4 | FEFG AFED | GFGc B4 | BB_B=B GD^CD | E^DEA [Ec]4 | [Fc]AFE DEFc | %7
w: Roy~J.~Werner * * * * * * *|||||||
 B2 A2 [B,G]4 | d2 B2 d3 D | DEFG G2 F2 | [Fc]2 [FA]2 c3 F | EDGc B4 | d2 B2 d3 B | %13
w: ||||||
 AGAB [=Fd]2 [Ec]2 | [Fc]AFE DEFc |[M:8/4] B2 A2 [B,G]4 z8 |] %16
w: |||
V:2
 [G,D][G,D][G,^C][G,D] [G,B,][G,B,][G,_B,][G,=B,] | [C,G,C][C,F,C][C,G,C][C,E,C] [C,A,C]4 | %2
 [D,A,C][D,A,C][D,A,C][D,G,B,] [D,F,C][D,A,C][E,A,C][F,A,C] | [G,B,][G,A,][G,B,][G,E] [G,D]4 | %4
 [G,D][G,D][G,^C][G,D] [G,B,][G,B,][G,_B,][G,=B,] | [C,G,C][C,F,C][C,G,C][C,E,C] [A,,A,]4 | %6
 [D,A,][D,CD][D,A,C][D,G,C] [D,F,C][D,G,C][D,A,C][D,F,E] | [D,F,D]2 [D,C]2 [G,,D,]4 | %8
 [G,B,G]2 [G,DG]2 [G,B,G]3 [G,B,] | [G,B,][K:bass][G,B,][G,B,D][G,B,D] [A,CD]2 [A,CD]2 | %10
 [D,D]2 [D,D]2 [D,A,D]3 [D,A,C] | [G,C][G,B,][G,B,][K:treble][G,E] [G,D]4 | %12
 [G,B,G]2 [G,DG]2 [G,B,G]3 [G,D] | [G,=F][G,F][G,F][G,F][K:bass] [C,^G,]2 [C,A,]2 | %14
 [D,A,][D,CD][D,A,C][D,G,C] [D,F,C][D,G,C][D,A,C][D,F,E] |[M:8/4] [D,F,D]2 [D,C]2 [G,,D,]4 z8 |] %16

